X:63
T:The Lucky Trapper
C:Andy Dejarlis
S:Doug Creighton
Z:robin.beech@mcgill.ca
M:4/4
L:1/8
R:reel
K:G
D2 | G2BG DGBG | DGBG cGBG | A2AF DFAF | DFAc BGAF |
G2BG DGBG | cGBG ABAG | FGAB cdef | gfga g2 ::
d2 | g2ga gfed | eaab a2ag | f2d2 dedc | BGAF GABd |
g2ga gfed | eaab a2ag | fgaf bfaf | gfga g2 :|

